X: 268
T: Mai laopuo
%%abc-version 2.0
%%abcx-abcm2ps-target-version 5.9.1 (29 Sep 2008)
%%abc-creator hum2abc beta
%%abcx-conversion-date 2013/10/02 07:52:29
%%abc-edited-by Helmut Schaffrath
%%humdrum-veritas 1693583595
%%humdrum-veritas-data 54917831
%%continueall 1
%%barnumbers 0
L: 1/8
M: 2/4
K: F
f f/ f/ d A [I:setbarnb 1]| 
c3f | 
d c A G | 
F3z | 
f d f a | 
g dc2 | 
c f e d | 
c c/ A/ c d | 
c4 |]  



